X: 396
T: A To K
R: jig
M: 6/8
K: Bminor
~F3 DFA|ded cBA|~B3EA(B|B)Ad BAE|
~F3 DFA|ded cBA|~B3EFA|1 BAF D2E:|2 BAFD3||
ABd ede|f2a fed|~B3EA(B|B)Ad BAF|
ABd ede|fbf afd|~B3EFA|BAFD3||
ABd ede|f2a fed|~B3EA(B|B)Ad Bde|
dac aBg|fed edc|~B3EFA|BAFD2E||"last time"BAcd3||

